build/assets/logo.svg

<svg width="171" height="46" viewBox="0 0 171 46" fill="none" xmlns="http://www.w3.org/2000/svg">
<path d="M3.83331 17.25C3.83331 22.3333 5.85265 27.2084 9.4471 30.8029C13.0415 34.3973 17.9167 36.4167 23 36.4167C28.0833 36.4167 32.9584 34.3973 36.5529 30.8029C40.1473 27.2084 42.1666 22.3333 42.1666 17.25" stroke="url(#paint0_linear_9_36)" stroke-width="2" stroke-linecap="round" stroke-linejoin="round"/>
<path d="M23 36.4167C23 31.3334 25.0193 26.4582 28.6138 22.8638C32.2082 19.2693 37.0833 17.25 42.1666 17.25M3.83331 17.25C6.35032 17.25 8.84267 17.7458 11.1681 18.709C13.4935 19.6722 15.6064 21.084 17.3862 22.8638C19.166 24.6436 20.5778 26.7565 21.541 29.0819C22.5042 31.4073 23 33.8997 23 36.4167" stroke="url(#paint1_linear_9_36)" stroke-width="2" stroke-linecap="round" stroke-linejoin="round"/>
<path d="M23 7.66675C24.9316 9.51069 26.4432 11.7491 27.4322 14.2296C28.4211 16.7102 28.864 19.3747 28.7308 22.0417M17.2692 22.0417C17.136 19.3747 17.5789 16.7102 18.5678 14.2296C19.5568 11.7491 21.0684 9.51069 23 7.66675" stroke="url(#paint2_linear_9_36)" stroke-width="2" stroke-linecap="round" stroke-linejoin="round"/>
<path d="M60.679 34.5H52.429V11.2273H60.7472C63.0881 11.2273 65.1032 11.6932 66.7926 12.625C68.482 13.5492 69.7813 14.8788 70.6903 16.6136C71.607 18.3485 72.0653 20.4242 72.0653 22.8409C72.0653 25.2652 71.607 27.3485 70.6903 29.0909C69.7813 30.8333 68.4744 32.1705 66.7699 33.1023C65.0729 34.0341 63.0426 34.5 60.679 34.5ZM57.3494 30.2841H60.4744C61.929 30.2841 63.1525 30.0265 64.1449 29.5114C65.1449 28.9886 65.8949 28.1818 66.3949 27.0909C66.9025 25.9924 67.1562 24.5758 67.1562 22.8409C67.1562 21.1212 66.9025 19.7159 66.3949 18.625C65.8949 17.5341 65.1487 16.7311 64.1562 16.2159C63.1638 15.7008 61.9403 15.4432 60.4858 15.4432H57.3494V30.2841ZM80.5966 34.8295C79.483 34.8295 78.4905 34.6364 77.6193 34.25C76.7481 33.8561 76.0587 33.2765 75.5511 32.5114C75.0511 31.7386 74.8011 30.7765 74.8011 29.625C74.8011 28.6553 74.9792 27.8409 75.3352 27.1818C75.6913 26.5227 76.1761 25.9924 76.7898 25.5909C77.4034 25.1894 78.1004 24.8864 78.8807 24.6818C79.6686 24.4773 80.4943 24.3333 81.358 24.25C82.3731 24.1439 83.1913 24.0455 83.8125 23.9545C84.4337 23.8561 84.8845 23.7121 85.1648 23.5227C85.4451 23.3333 85.5852 23.053 85.5852 22.6818V22.6136C85.5852 21.8939 85.358 21.3371 84.9034 20.9432C84.4564 20.5492 83.8201 20.3523 82.9943 20.3523C82.1231 20.3523 81.4299 20.5455 80.9148 20.9318C80.3996 21.3106 80.0587 21.7879 79.892 22.3636L75.4148 22C75.642 20.9394 76.089 20.0227 76.7557 19.25C77.4223 18.4697 78.2822 17.8712 79.3352 17.4545C80.3958 17.0303 81.6231 16.8182 83.017 16.8182C83.9867 16.8182 84.9148 16.9318 85.8011 17.1591C86.6951 17.3864 87.4867 17.7386 88.1761 18.2159C88.8731 18.6932 89.4223 19.3068 89.8239 20.0568C90.2254 20.7992 90.4261 21.6894 90.4261 22.7273V34.5H85.8352V32.0795H85.6989C85.4186 32.625 85.0436 33.1061 84.5739 33.5227C84.1042 33.9318 83.5398 34.2538 82.8807 34.4886C82.2216 34.7159 81.4602 34.8295 80.5966 34.8295ZM81.983 31.4886C82.6951 31.4886 83.3239 31.3485 83.8693 31.0682C84.4148 30.7803 84.8428 30.3939 85.1534 29.9091C85.464 29.4242 85.6193 28.875 85.6193 28.2614V26.4091C85.4678 26.5076 85.2595 26.5985 84.9943 26.6818C84.7367 26.7576 84.4451 26.8295 84.1193 26.8977C83.7936 26.9583 83.4678 27.0152 83.142 27.0682C82.8163 27.1136 82.5208 27.1553 82.2557 27.1932C81.6875 27.2765 81.1913 27.4091 80.767 27.5909C80.3428 27.7727 80.0133 28.0189 79.7784 28.3295C79.5436 28.6326 79.4261 29.0114 79.4261 29.4659C79.4261 30.125 79.6648 30.6288 80.142 30.9773C80.6269 31.3182 81.2405 31.4886 81.983 31.4886ZM105.375 27.0682V17.0455H110.216V34.5H105.568V31.3295H105.386C104.992 32.3523 104.337 33.1742 103.42 33.7955C102.511 34.4167 101.402 34.7273 100.091 34.7273C98.9242 34.7273 97.8977 34.4621 97.0114 33.9318C96.125 33.4015 95.4318 32.6477 94.9318 31.6705C94.4394 30.6932 94.1894 29.5227 94.1818 28.1591V17.0455H99.0227V27.2955C99.0303 28.3258 99.3068 29.1402 99.8523 29.7386C100.398 30.3371 101.129 30.6364 102.045 30.6364C102.629 30.6364 103.174 30.5038 103.682 30.2386C104.189 29.9659 104.598 29.5644 104.909 29.0341C105.227 28.5038 105.383 27.8485 105.375 27.0682ZM118.929 24.4091V34.5H114.088V17.0455H118.702V20.125H118.906C119.293 19.1098 119.94 18.3068 120.849 17.7159C121.759 17.1174 122.861 16.8182 124.156 16.8182C125.368 16.8182 126.425 17.0833 127.327 17.6136C128.228 18.1439 128.929 18.9015 129.429 19.8864C129.929 20.8636 130.179 22.0303 130.179 23.3864V34.5H125.338V24.25C125.346 23.1818 125.073 22.3485 124.52 21.75C123.967 21.1439 123.205 20.8409 122.236 20.8409C121.584 20.8409 121.009 20.9811 120.509 21.2614C120.016 21.5417 119.63 21.9508 119.349 22.4886C119.077 23.0189 118.937 23.6591 118.929 24.4091ZM138.381 29.4773L138.392 23.6705H139.097L144.688 17.0455H150.244L142.733 25.8182H141.585L138.381 29.4773ZM133.994 34.5V11.2273H138.835V34.5H133.994ZM144.903 34.5L139.767 26.8977L142.994 23.4773L150.574 34.5H144.903ZM163.812 27.0682V17.0455H168.653V34.5H164.006V31.3295H163.824C163.43 32.3523 162.775 33.1742 161.858 33.7955C160.949 34.4167 159.839 34.7273 158.528 34.7273C157.362 34.7273 156.335 34.4621 155.449 33.9318C154.563 33.4015 153.869 32.6477 153.369 31.6705C152.877 30.6932 152.627 29.5227 152.619 28.1591V17.0455H157.46V27.2955C157.468 28.3258 157.744 29.1402 158.29 29.7386C158.835 30.3371 159.566 30.6364 160.483 30.6364C161.066 30.6364 161.612 30.5038 162.119 30.2386C162.627 29.9659 163.036 29.5644 163.347 29.0341C163.665 28.5038 163.82 27.8485 163.812 27.0682Z" fill="white"/>
<defs>
<linearGradient id="paint0_linear_9_36" x1="3.83331" y1="26.8333" x2="42.1666" y2="26.8333" gradientUnits="userSpaceOnUse">
<stop stop-color="#2AF598"/>
<stop offset="1" stop-color="#009EFD"/>
</linearGradient>
<linearGradient id="paint1_linear_9_36" x1="3.83331" y1="26.8333" x2="42.1666" y2="26.8333" gradientUnits="userSpaceOnUse">
<stop stop-color="#2AF598"/>
<stop offset="1" stop-color="#009EFD"/>
</linearGradient>
<linearGradient id="paint2_linear_9_36" x1="17.246" y1="14.8542" x2="28.754" y2="14.8542" gradientUnits="userSpaceOnUse">
<stop stop-color="#2AF598"/>
<stop offset="1" stop-color="#009EFD"/>
</linearGradient>
</defs>
</svg>

<svg xmlns="http://www.w3.org/2000/svg" width="171" height="46" fill="none"><path stroke="url(#a)" stroke-linecap="round" stroke-linejoin="round" stroke-width="2" d="M3.833 17.25a19.167 19.167 0 0 0 38.334 0"/><path stroke="url(#b)" stroke-linecap="round" stroke-linejoin="round" stroke-width="2" d="M23 36.417A19.166 19.166 0 0 1 42.167 17.25m-38.334 0A19.167 19.167 0 0 1 23 36.417"/><path stroke="url(#c)" stroke-linecap="round" stroke-linejoin="round" stroke-width="2" d="M23 7.667a18.593 18.593 0 0 1 5.73 14.375m-11.46 0A18.592 18.592 0 0 1 23 7.667"/><path fill="#fff" d="M60.679 34.5h-8.25V11.227h8.318c2.341 0 4.356.466 6.046 1.398 1.689.924 2.988 2.254 3.897 3.989.917 1.735 1.375 3.81 1.375 6.227 0 2.424-.458 4.508-1.375 6.25-.909 1.742-2.216 3.08-3.92 4.011-1.697.932-3.727 1.398-6.091 1.398Zm-3.33-4.216h3.125c1.455 0 2.679-.258 3.67-.773 1-.522 1.75-1.33 2.25-2.42.508-1.099.762-2.515.762-4.25 0-1.72-.254-3.125-.761-4.216-.5-1.09-1.246-1.894-2.239-2.41-.992-.514-2.216-.772-3.67-.772h-3.137v14.841Zm23.248 4.546c-1.114 0-2.106-.194-2.978-.58a4.793 4.793 0 0 1-2.068-1.739c-.5-.772-.75-1.735-.75-2.886 0-.97.178-1.784.534-2.443.356-.66.841-1.19 1.455-1.591a7.056 7.056 0 0 1 2.09-.91 15.939 15.939 0 0 1 2.478-.431 62.59 62.59 0 0 0 2.454-.296c.622-.098 1.073-.242 1.353-.431.28-.19.42-.47.42-.841v-.068c0-.72-.227-1.277-.682-1.67-.447-.395-1.083-.592-1.909-.592-.87 0-1.564.194-2.08.58-.514.379-.855.856-1.022 1.432L75.415 22c.227-1.06.674-1.977 1.34-2.75.667-.78 1.527-1.379 2.58-1.796 1.06-.424 2.288-.636 3.682-.636.97 0 1.898.114 2.784.341.894.227 1.686.58 2.375 1.057a5.137 5.137 0 0 1 1.648 1.84c.401.743.602 1.633.602 2.671V34.5h-4.59v-2.42h-.137a4.925 4.925 0 0 1-1.125 1.443c-.47.409-1.034.73-1.693.966-.66.227-1.42.34-2.284.34Zm1.386-3.341c.712 0 1.34-.14 1.886-.42a3.342 3.342 0 0 0 1.284-1.16c.311-.485.466-1.034.466-1.648V26.41a2.59 2.59 0 0 1-.625.273c-.257.076-.549.148-.875.216-.325.06-.651.117-.977.17l-.886.125a5.989 5.989 0 0 0-1.489.398c-.424.182-.754.428-.989.738-.234.304-.352.682-.352 1.137 0 .659.239 1.163.716 1.511.485.341 1.099.512 1.841.512Zm23.392-4.42V17.045h4.841V34.5h-4.648v-3.17h-.182a5.153 5.153 0 0 1-1.966 2.465c-.909.622-2.018.932-3.329.932-1.167 0-2.193-.265-3.08-.795-.886-.53-1.58-1.284-2.08-2.262-.492-.977-.742-2.147-.75-3.51V17.045h4.842v10.25c.007 1.03.284 1.844.83 2.443.545.598 1.276.897 2.192.897.584 0 1.129-.132 1.637-.397a3.128 3.128 0 0 0 1.227-1.205c.318-.53.474-1.185.466-1.966Zm13.554-2.66V34.5h-4.841V17.046h4.614v3.079h.204a4.873 4.873 0 0 1 1.943-2.41c.91-.598 2.012-.897 3.307-.897 1.212 0 2.269.265 3.171.796.901.53 1.602 1.287 2.102 2.272.5.978.75 2.144.75 3.5V34.5h-4.841V24.25c.008-1.068-.265-1.901-.818-2.5-.553-.606-1.315-.91-2.284-.91-.652 0-1.227.141-1.727.421-.493.28-.879.69-1.16 1.228-.272.53-.412 1.17-.42 1.92Zm19.452 5.068.011-5.806h.705l5.591-6.625h5.556l-7.511 8.772h-1.148l-3.204 3.66Zm-4.387 5.023V11.227h4.841V34.5h-4.841Zm10.909 0-5.136-7.602 3.227-3.42 7.58 11.022h-5.671Zm18.909-7.432V17.045h4.841V34.5h-4.647v-3.17h-.182a5.153 5.153 0 0 1-1.966 2.465c-.909.622-2.019.932-3.33.932-1.166 0-2.193-.265-3.079-.795-.886-.53-1.58-1.284-2.08-2.262-.492-.977-.742-2.147-.75-3.51V17.045h4.841v10.25c.008 1.03.284 1.844.83 2.443.545.598 1.276.897 2.193.897a3.48 3.48 0 0 0 1.636-.397 3.124 3.124 0 0 0 1.228-1.205c.318-.53.473-1.185.465-1.966Z"/><defs><linearGradient id="a" x1="3.833" x2="42.167" y1="26.833" y2="26.833" gradientUnits="userSpaceOnUse"><stop stop-color="#2AF598"/><stop offset="1" stop-color="#009EFD"/></linearGradient><linearGradient id="b" x1="3.833" x2="42.167" y1="26.833" y2="26.833" gradientUnits="userSpaceOnUse"><stop stop-color="#2AF598"/><stop offset="1" stop-color="#009EFD"/></linearGradient><linearGradient id="c" x1="17.246" x2="28.754" y1="14.854" y2="14.854" gradientUnits="userSpaceOnUse"><stop stop-color="#2AF598"/><stop offset="1" stop-color="#009EFD"/></linearGradient></defs></svg>
